src/assets/icons/text-list-numbered.svg

<svg viewBox="0 0 20 12" xmlns="http://www.w3.org/2000/svg">
<path d="M8 2H19C19.2652 2 19.5196 1.89464 19.7071 1.70711C19.8946 1.51957 20 1.26522 20 1C20 0.734784 19.8946 0.48043 19.7071 0.292893C19.5196 0.105357 19.2652 0 19 0H8C7.73478 0 7.48043 0.105357 7.29289 0.292893C7.10536 0.48043 7 0.734784 7 1C7 1.26522 7.10536 1.51957 7.29289 1.70711C7.48043 1.89464 7.73478 2 8 2ZM19 5H8C7.73478 5 7.48043 5.10536 7.29289 5.29289C7.10536 5.48043 7 5.73478 7 6C7 6.26522 7.10536 6.51957 7.29289 6.70711C7.48043 6.89464 7.73478 7 8 7H19C19.2652 7 19.5196 6.89464 19.7071 6.70711C19.8946 6.51957 20 6.26522 20 6C20 5.73478 19.8946 5.48043 19.7071 5.29289C19.5196 5.10536 19.2652 5 19 5ZM19 10H8C7.73478 10 7.48043 10.1054 7.29289 10.2929C7.10536 10.4804 7 10.7348 7 11C7 11.2652 7.10536 11.5196 7.29289 11.7071C7.48043 11.8946 7.73478 12 8 12H19C19.2652 12 19.5196 11.8946 19.7071 11.7071C19.8946 11.5196 20 11.2652 20 11C20 10.7348 19.8946 10.4804 19.7071 10.2929C19.5196 10.1054 19.2652 10 19 10Z"/>
<path d="M4.38268 0.0761497C4.75636 0.230931 5 0.595567 5 1.00003V11C5 11.5523 4.55228 12 4 12C3.44772 12 3 11.5523 3 11V3.41424L1.70711 4.70714C1.31658 5.09766 0.683417 5.09766 0.292893 4.70714C-0.0976311 4.31661 -0.0976311 3.68345 0.292893 3.29292L3.29289 0.292922C3.57889 0.00692445 4.00901 -0.0786313 4.38268 0.0761497Z"/>
</svg>

<svg viewBox="0 0 20 12" xmlns="http://www.w3.org/2000/svg">
  <path d="M8 2h11a1 1 0 1 0 0-2H8a1 1 0 0 0 0 2zm11 3H8a1 1 0 0 0 0 2h11a1 1 0 1 0 0-2zm0 5H8a1 1 0 0 0 0 2h11a1 1 0 0 0 0-2zM4.383.076A1 1 0 0 1 5 1v10a1 1 0 1 1-2 0V3.414L1.707 4.707A1 1 0 0 1 .293 3.293l3-3a1 1 0 0 1 1.09-.217z"/>
</svg>
